(G-CODE GENERATED BY FLATCAM v8.994 - www.flatcam.org - Version Date: 2020/11/7)

(Name: GyroCam BNO055 board cutout_cnc)
(Type: G-code from Geometry)
(Units: MM)

(Created on Monday, 28 December 2020 at 15:44)

(This preprocessor is the default preprocessor used by FlatCAM.)
(It is made to work with MACH3 compatible motion controllers.)

(TOOL DIAMETER: 0.8 mm)
(Feedrate_XY: 200.0 mm/min)
(Feedrate_Z: 200.0 mm/min)
(Feedrate rapids 1500.0 mm/min)

(Z_Cut: -1.2 mm)
(DepthPerCut: 0.4 mm <=>3 passes)
(Z_Move: 2.0 mm)
(Z Start: None mm)
(Z End: 40.0 mm)
(X,Y End: 0.0000, 0.0000 mm)
(Steps per circle: 64)
(Preprocessor Geometry: default)

(X range:   -0.5271 ...   97.5271  mm)
(Y range:   -0.5271 ...   67.5271  mm)

(Spindle Speed: 0.0 RPM)
G21
G90
G94

G01 F200.00

M5
G00 Z15.0000
G00 X0.0000 Y0.0000
T1
M6    
(MSG, Change to Tool Dia = 0.8000)
M0
G00 Z15.0000

M03
G01 F200.00
G00 X97.1271 Y-0.5271
G01 F200.00
G01 Z-0.4000
G01 F200.00
G01 X-0.1271 Y-0.5271
G01 X-0.1663 Y-0.5251
G01 X-0.2051 Y-0.5194
G01 X-0.2432 Y-0.5098
G01 X-0.2801 Y-0.4966
G01 X-0.3156 Y-0.4798
G01 X-0.3493 Y-0.4597
G01 X-0.3808 Y-0.4363
G01 X-0.4099 Y-0.4099
G01 X-0.4363 Y-0.3808
G01 X-0.4597 Y-0.3493
G01 X-0.4798 Y-0.3156
G01 X-0.4966 Y-0.2801
G01 X-0.5098 Y-0.2432
G01 X-0.5194 Y-0.2051
G01 X-0.5251 Y-0.1663
G01 X-0.5271 Y-0.1271
G01 X-0.5271 Y67.1271
G01 X-0.5251 Y67.1663
G01 X-0.5194 Y67.2051
G01 X-0.5098 Y67.2432
G01 X-0.4966 Y67.2801
G01 X-0.4798 Y67.3156
G01 X-0.4597 Y67.3493
G01 X-0.4363 Y67.3808
G01 X-0.4099 Y67.4099
G01 X-0.3808 Y67.4363
G01 X-0.3493 Y67.4597
G01 X-0.3156 Y67.4798
G01 X-0.2801 Y67.4966
G01 X-0.2432 Y67.5098
G01 X-0.2051 Y67.5194
G01 X-0.1663 Y67.5251
G01 X-0.1271 Y67.5271
G01 X97.1271 Y67.5271
G01 X97.1663 Y67.5251
G01 X97.2051 Y67.5194
G01 X97.2432 Y67.5098
G01 X97.2801 Y67.4966
G01 X97.3156 Y67.4798
G01 X97.3493 Y67.4597
G01 X97.3808 Y67.4363
G01 X97.4099 Y67.4099
G01 X97.4363 Y67.3808
G01 X97.4597 Y67.3493
G01 X97.4798 Y67.3156
G01 X97.4966 Y67.2801
G01 X97.5098 Y67.2432
G01 X97.5194 Y67.2051
G01 X97.5251 Y67.1663
G01 X97.5271 Y67.1271
G01 X97.5271 Y-0.1271
G01 X97.5251 Y-0.1663
G01 X97.5194 Y-0.2051
G01 X97.5098 Y-0.2432
G01 X97.4966 Y-0.2801
G01 X97.4798 Y-0.3156
G01 X97.4597 Y-0.3493
G01 X97.4363 Y-0.3808
G01 X97.4099 Y-0.4099
G01 X97.3808 Y-0.4363
G01 X97.3493 Y-0.4597
G01 X97.3156 Y-0.4798
G01 X97.2801 Y-0.4966
G01 X97.2432 Y-0.5098
G01 X97.2051 Y-0.5194
G01 X97.1663 Y-0.5251
G01 X97.1271 Y-0.5271
G00 X97.1271 Y-0.5271
G01 F200.00
G01 Z-0.8000
G01 F200.00
G01 X97.1663 Y-0.5251
G01 X97.2051 Y-0.5194
G01 X97.2432 Y-0.5098
G01 X97.2801 Y-0.4966
G01 X97.3156 Y-0.4798
G01 X97.3493 Y-0.4597
G01 X97.3808 Y-0.4363
G01 X97.4099 Y-0.4099
G01 X97.4363 Y-0.3808
G01 X97.4597 Y-0.3493
G01 X97.4798 Y-0.3156
G01 X97.4966 Y-0.2801
G01 X97.5098 Y-0.2432
G01 X97.5194 Y-0.2051
G01 X97.5251 Y-0.1663
G01 X97.5271 Y-0.1271
G01 X97.5271 Y67.1271
G01 X97.5251 Y67.1663
G01 X97.5194 Y67.2051
G01 X97.5098 Y67.2432
G01 X97.4966 Y67.2801
G01 X97.4798 Y67.3156
G01 X97.4597 Y67.3493
G01 X97.4363 Y67.3808
G01 X97.4099 Y67.4099
G01 X97.3808 Y67.4363
G01 X97.3493 Y67.4597
G01 X97.3156 Y67.4798
G01 X97.2801 Y67.4966
G01 X97.2432 Y67.5098
G01 X97.2051 Y67.5194
G01 X97.1663 Y67.5251
G01 X97.1271 Y67.5271
G01 X-0.1271 Y67.5271
G01 X-0.1663 Y67.5251
G01 X-0.2051 Y67.5194
G01 X-0.2432 Y67.5098
G01 X-0.2801 Y67.4966
G01 X-0.3156 Y67.4798
G01 X-0.3493 Y67.4597
G01 X-0.3808 Y67.4363
G01 X-0.4099 Y67.4099
G01 X-0.4363 Y67.3808
G01 X-0.4597 Y67.3493
G01 X-0.4798 Y67.3156
G01 X-0.4966 Y67.2801
G01 X-0.5098 Y67.2432
G01 X-0.5194 Y67.2051
G01 X-0.5251 Y67.1663
G01 X-0.5271 Y67.1271
G01 X-0.5271 Y-0.1271
G01 X-0.5251 Y-0.1663
G01 X-0.5194 Y-0.2051
G01 X-0.5098 Y-0.2432
G01 X-0.4966 Y-0.2801
G01 X-0.4798 Y-0.3156
G01 X-0.4597 Y-0.3493
G01 X-0.4363 Y-0.3808
G01 X-0.4099 Y-0.4099
G01 X-0.3808 Y-0.4363
G01 X-0.3493 Y-0.4597
G01 X-0.3156 Y-0.4798
G01 X-0.2801 Y-0.4966
G01 X-0.2432 Y-0.5098
G01 X-0.2051 Y-0.5194
G01 X-0.1663 Y-0.5251
G01 X-0.1271 Y-0.5271
G01 X97.1271 Y-0.5271
G00 X97.1271 Y-0.5271
G01 F200.00
G01 Z-1.2000
G01 F200.00
G01 X-0.1271 Y-0.5271
G01 X-0.1663 Y-0.5251
G01 X-0.2051 Y-0.5194
G01 X-0.2432 Y-0.5098
G01 X-0.2801 Y-0.4966
G01 X-0.3156 Y-0.4798
G01 X-0.3493 Y-0.4597
G01 X-0.3808 Y-0.4363
G01 X-0.4099 Y-0.4099
G01 X-0.4363 Y-0.3808
G01 X-0.4597 Y-0.3493
G01 X-0.4798 Y-0.3156
G01 X-0.4966 Y-0.2801
G01 X-0.5098 Y-0.2432
G01 X-0.5194 Y-0.2051
G01 X-0.5251 Y-0.1663
G01 X-0.5271 Y-0.1271
G01 X-0.5271 Y67.1271
G01 X-0.5251 Y67.1663
G01 X-0.5194 Y67.2051
G01 X-0.5098 Y67.2432
G01 X-0.4966 Y67.2801
G01 X-0.4798 Y67.3156
G01 X-0.4597 Y67.3493
G01 X-0.4363 Y67.3808
G01 X-0.4099 Y67.4099
G01 X-0.3808 Y67.4363
G01 X-0.3493 Y67.4597
G01 X-0.3156 Y67.4798
G01 X-0.2801 Y67.4966
G01 X-0.2432 Y67.5098
G01 X-0.2051 Y67.5194
G01 X-0.1663 Y67.5251
G01 X-0.1271 Y67.5271
G01 X97.1271 Y67.5271
G01 X97.1663 Y67.5251
G01 X97.2051 Y67.5194
G01 X97.2432 Y67.5098
G01 X97.2801 Y67.4966
G01 X97.3156 Y67.4798
G01 X97.3493 Y67.4597
G01 X97.3808 Y67.4363
G01 X97.4099 Y67.4099
G01 X97.4363 Y67.3808
G01 X97.4597 Y67.3493
G01 X97.4798 Y67.3156
G01 X97.4966 Y67.2801
G01 X97.5098 Y67.2432
G01 X97.5194 Y67.2051
G01 X97.5251 Y67.1663
G01 X97.5271 Y67.1271
G01 X97.5271 Y-0.1271
G01 X97.5251 Y-0.1663
G01 X97.5194 Y-0.2051
G01 X97.5098 Y-0.2432
G01 X97.4966 Y-0.2801
G01 X97.4798 Y-0.3156
G01 X97.4597 Y-0.3493
G01 X97.4363 Y-0.3808
G01 X97.4099 Y-0.4099
G01 X97.3808 Y-0.4363
G01 X97.3493 Y-0.4597
G01 X97.3156 Y-0.4798
G01 X97.2801 Y-0.4966
G01 X97.2432 Y-0.5098
G01 X97.2051 Y-0.5194
G01 X97.1663 Y-0.5251
G01 X97.1271 Y-0.5271
G00 Z2.0000
M05
G00 Z2.0000
G00 Z40.00
G00 X0.0 Y0.0


