(G-CODE GENERATED BY FLATCAM v8.994 - www.flatcam.org - Version Date: 2020/11/7)

(Name: Other.gbr_cutout_cnc)
(Type: G-code from Geometry)
(Units: MM)

(Created on Monday, 28 December 2020 at 15:40)

(This preprocessor is the default preprocessor used by FlatCAM.)
(It is made to work with MACH3 compatible motion controllers.)

(TOOL DIAMETER: 0.8 mm)
(Feedrate_XY: 200.0 mm/min)
(Feedrate_Z: 200.0 mm/min)
(Feedrate rapids 1500.0 mm/min)

(Z_Cut: -1.2 mm)
(DepthPerCut: 0.4 mm <=>3 passes)
(Z_Move: 2.0 mm)
(Z Start: None mm)
(Z End: 40.0 mm)
(X,Y End: 0.0000, 0.0000 mm)
(Steps per circle: 64)
(Preprocessor Geometry: default)

(X range:    3.3973 ...   86.7727  mm)
(Y range:    3.9053 ...   56.2927  mm)

(Spindle Speed: 0.0 RPM)
G21
G90
G94

G01 F200.00

M5
G00 Z15.0000
G00 X0.0000 Y0.0000
T1
M6    
(MSG, Change to Tool Dia = 0.8000)
M0
G00 Z15.0000

M03
G4 P2.0
G01 F200.00
G00 X20.9600 Y3.9053
G01 F200.00
G01 Z-0.4000
G01 F200.00
G01 X3.8100 Y3.9053
G01 X3.7891 Y3.9058
G01 X3.7501 Y3.9097
G01 X3.7103 Y3.9175
G01 X3.6716 Y3.9292
G01 X3.6330 Y3.9452
G01 X3.5973 Y3.9643
G01 X3.5647 Y3.9862
G01 X3.5333 Y4.0118
G01 X3.5038 Y4.0413
G01 X3.4782 Y4.0727
G01 X3.4563 Y4.1053
G01 X3.4372 Y4.1410
G01 X3.4212 Y4.1796
G01 X3.4095 Y4.2183
G01 X3.4019 Y4.2568
G01 X3.3978 Y4.2971
G01 X3.3973 Y4.3180
G01 X3.3973 Y28.1990
G00 X3.3973 Y28.1990
G01 F200.00
G01 Z-0.8000
G01 F200.00
G01 X3.3973 Y4.3180
G01 X3.3978 Y4.2971
G01 X3.4019 Y4.2568
G01 X3.4095 Y4.2183
G01 X3.4212 Y4.1796
G01 X3.4372 Y4.1410
G01 X3.4563 Y4.1053
G01 X3.4782 Y4.0727
G01 X3.5038 Y4.0413
G01 X3.5333 Y4.0118
G01 X3.5647 Y3.9862
G01 X3.5973 Y3.9643
G01 X3.6330 Y3.9452
G01 X3.6716 Y3.9292
G01 X3.7103 Y3.9175
G01 X3.7501 Y3.9097
G01 X3.7891 Y3.9058
G01 X3.8100 Y3.9053
G01 X20.9600 Y3.9053
G00 X20.9600 Y3.9053
G01 F200.00
G01 Z-1.2000
G01 F200.00
G01 X3.8100 Y3.9053
G01 X3.7891 Y3.9058
G01 X3.7501 Y3.9097
G01 X3.7103 Y3.9175
G01 X3.6716 Y3.9292
G01 X3.6330 Y3.9452
G01 X3.5973 Y3.9643
G01 X3.5647 Y3.9862
G01 X3.5333 Y4.0118
G01 X3.5038 Y4.0413
G01 X3.4782 Y4.0727
G01 X3.4563 Y4.1053
G01 X3.4372 Y4.1410
G01 X3.4212 Y4.1796
G01 X3.4095 Y4.2183
G01 X3.4019 Y4.2568
G01 X3.3978 Y4.2971
G01 X3.3973 Y4.3180
G01 X3.3973 Y28.1990
G00 Z2.0000
G00 X3.3973 Y31.9990
G01 F200.00
G01 Z-0.4000
G01 F200.00
G01 X3.3973 Y55.8800
G01 X3.3978 Y55.9009
G01 X3.4019 Y55.9412
G01 X3.4098 Y55.9809
G01 X3.4212 Y56.0184
G01 X3.4372 Y56.0570
G01 X3.4563 Y56.0927
G01 X3.4782 Y56.1253
G01 X3.5038 Y56.1567
G01 X3.5333 Y56.1862
G01 X3.5647 Y56.2118
G01 X3.5984 Y56.2343
G01 X3.6330 Y56.2528
G01 X3.6716 Y56.2688
G01 X3.7103 Y56.2805
G01 X3.7501 Y56.2883
G01 X3.7891 Y56.2922
G01 X3.8100 Y56.2927
G01 X20.9600 Y56.2927
G00 X20.9600 Y56.2927
G01 F200.00
G01 Z-0.8000
G01 F200.00
G01 X3.8100 Y56.2927
G01 X3.7891 Y56.2922
G01 X3.7501 Y56.2883
G01 X3.7103 Y56.2805
G01 X3.6716 Y56.2688
G01 X3.6330 Y56.2528
G01 X3.5984 Y56.2343
G01 X3.5647 Y56.2118
G01 X3.5333 Y56.1862
G01 X3.5038 Y56.1567
G01 X3.4782 Y56.1253
G01 X3.4563 Y56.0927
G01 X3.4372 Y56.0570
G01 X3.4212 Y56.0184
G01 X3.4098 Y55.9809
G01 X3.4019 Y55.9412
G01 X3.3978 Y55.9009
G01 X3.3973 Y55.8800
G01 X3.3973 Y31.9990
G00 X3.3973 Y31.9990
G01 F200.00
G01 Z-1.2000
G01 F200.00
G01 X3.3973 Y55.8800
G01 X3.3978 Y55.9009
G01 X3.4019 Y55.9412
G01 X3.4098 Y55.9809
G01 X3.4212 Y56.0184
G01 X3.4372 Y56.0570
G01 X3.4563 Y56.0927
G01 X3.4782 Y56.1253
G01 X3.5038 Y56.1567
G01 X3.5333 Y56.1862
G01 X3.5647 Y56.2118
G01 X3.5984 Y56.2343
G01 X3.6330 Y56.2528
G01 X3.6716 Y56.2688
G01 X3.7103 Y56.2805
G01 X3.7501 Y56.2883
G01 X3.7891 Y56.2922
G01 X3.8100 Y56.2927
G01 X20.9600 Y56.2927
G00 Z2.0000
G00 X24.7600 Y56.2927
G01 F200.00
G01 Z-0.4000
G01 F200.00
G01 X41.9100 Y56.2927
G01 X41.9309 Y56.2922
G01 X41.9699 Y56.2883
G01 X42.0097 Y56.2805
G01 X42.0496 Y56.2684
G01 X42.0870 Y56.2528
G01 X42.1227 Y56.2337
G01 X42.1563 Y56.2111
G01 X42.1867 Y56.1862
G01 X42.2154 Y56.1576
G01 X42.2418 Y56.1253
G01 X42.2637 Y56.0927
G01 X42.2828 Y56.0570
G01 X42.2988 Y56.0184
G01 X42.3102 Y55.9809
G01 X42.3181 Y55.9412
G01 X42.3222 Y55.9009
G01 X42.3227 Y55.8800
G01 X42.3227 Y31.9990
G00 X42.3227 Y31.9990
G01 F200.00
G01 Z-0.8000
G01 F200.00
G01 X42.3227 Y55.8800
G01 X42.3222 Y55.9009
G01 X42.3181 Y55.9412
G01 X42.3102 Y55.9809
G01 X42.2988 Y56.0184
G01 X42.2828 Y56.0570
G01 X42.2637 Y56.0927
G01 X42.2418 Y56.1253
G01 X42.2154 Y56.1576
G01 X42.1867 Y56.1862
G01 X42.1563 Y56.2111
G01 X42.1227 Y56.2337
G01 X42.0870 Y56.2528
G01 X42.0496 Y56.2684
G01 X42.0097 Y56.2805
G01 X41.9699 Y56.2883
G01 X41.9309 Y56.2922
G01 X41.9100 Y56.2927
G01 X24.7600 Y56.2927
G00 X24.7600 Y56.2927
G01 F200.00
G01 Z-1.2000
G01 F200.00
G01 X41.9100 Y56.2927
G01 X41.9309 Y56.2922
G01 X41.9699 Y56.2883
G01 X42.0097 Y56.2805
G01 X42.0496 Y56.2684
G01 X42.0870 Y56.2528
G01 X42.1227 Y56.2337
G01 X42.1563 Y56.2111
G01 X42.1867 Y56.1862
G01 X42.2154 Y56.1576
G01 X42.2418 Y56.1253
G01 X42.2637 Y56.0927
G01 X42.2828 Y56.0570
G01 X42.2988 Y56.0184
G01 X42.3102 Y55.9809
G01 X42.3181 Y55.9412
G01 X42.3222 Y55.9009
G01 X42.3227 Y55.8800
G01 X42.3227 Y31.9990
G00 Z2.0000
G00 X42.3227 Y28.1990
G01 F200.00
G01 Z-0.4000
G01 F200.00
G01 X42.3227 Y4.3180
G01 X42.3222 Y4.2971
G01 X42.3181 Y4.2568
G01 X42.3102 Y4.2171
G01 X42.2988 Y4.1796
G01 X42.2828 Y4.1410
G01 X42.2643 Y4.1064
G01 X42.2418 Y4.0727
G01 X42.2162 Y4.0413
G01 X42.1867 Y4.0118
G01 X42.1563 Y3.9869
G01 X42.1227 Y3.9643
G01 X42.0870 Y3.9452
G01 X42.0484 Y3.9292
G01 X42.0097 Y3.9175
G01 X41.9699 Y3.9097
G01 X41.9309 Y3.9058
G01 X41.9100 Y3.9053
G01 X24.7600 Y3.9053
G00 X24.7600 Y3.9053
G01 F200.00
G01 Z-0.8000
G01 F200.00
G01 X41.9100 Y3.9053
G01 X41.9309 Y3.9058
G01 X41.9699 Y3.9097
G01 X42.0097 Y3.9175
G01 X42.0484 Y3.9292
G01 X42.0870 Y3.9452
G01 X42.1227 Y3.9643
G01 X42.1563 Y3.9869
G01 X42.1867 Y4.0118
G01 X42.2162 Y4.0413
G01 X42.2418 Y4.0727
G01 X42.2643 Y4.1064
G01 X42.2828 Y4.1410
G01 X42.2988 Y4.1796
G01 X42.3102 Y4.2171
G01 X42.3181 Y4.2568
G01 X42.3222 Y4.2971
G01 X42.3227 Y4.3180
G01 X42.3227 Y28.1990
G00 X42.3227 Y28.1990
G01 F200.00
G01 Z-1.2000
G01 F200.00
G01 X42.3227 Y4.3180
G01 X42.3222 Y4.2971
G01 X42.3181 Y4.2568
G01 X42.3102 Y4.2171
G01 X42.2988 Y4.1796
G01 X42.2828 Y4.1410
G01 X42.2643 Y4.1064
G01 X42.2418 Y4.0727
G01 X42.2162 Y4.0413
G01 X42.1867 Y4.0118
G01 X42.1563 Y3.9869
G01 X42.1227 Y3.9643
G01 X42.0870 Y3.9452
G01 X42.0484 Y3.9292
G01 X42.0097 Y3.9175
G01 X41.9699 Y3.9097
G01 X41.9309 Y3.9058
G01 X41.9100 Y3.9053
G01 X24.7600 Y3.9053
G00 Z2.0000
G00 X47.8473 Y28.1990
G01 F200.00
G01 Z-0.4000
G01 F200.00
G01 X47.8473 Y4.3180
G01 X47.8478 Y4.2971
G01 X47.8519 Y4.2568
G01 X47.8598 Y4.2171
G01 X47.8712 Y4.1796
G01 X47.8872 Y4.1410
G01 X47.9057 Y4.1064
G01 X47.9282 Y4.0727
G01 X47.9538 Y4.0413
G01 X47.9833 Y4.0118
G01 X48.0147 Y3.9862
G01 X48.0484 Y3.9637
G01 X48.0830 Y3.9452
G01 X48.1216 Y3.9292
G01 X48.1603 Y3.9175
G01 X48.2001 Y3.9097
G01 X48.2391 Y3.9058
G01 X48.2600 Y3.9053
G01 X65.4100 Y3.9053
G00 X65.4100 Y3.9053
G01 F200.00
G01 Z-0.8000
G01 F200.00
G01 X48.2600 Y3.9053
G01 X48.2391 Y3.9058
G01 X48.2001 Y3.9097
G01 X48.1603 Y3.9175
G01 X48.1216 Y3.9292
G01 X48.0830 Y3.9452
G01 X48.0484 Y3.9637
G01 X48.0147 Y3.9862
G01 X47.9833 Y4.0118
G01 X47.9538 Y4.0413
G01 X47.9282 Y4.0727
G01 X47.9057 Y4.1064
G01 X47.8872 Y4.1410
G01 X47.8712 Y4.1796
G01 X47.8598 Y4.2171
G01 X47.8519 Y4.2568
G01 X47.8478 Y4.2971
G01 X47.8473 Y4.3180
G01 X47.8473 Y28.1990
G00 X47.8473 Y28.1990
G01 F200.00
G01 Z-1.2000
G01 F200.00
G01 X47.8473 Y4.3180
G01 X47.8478 Y4.2971
G01 X47.8519 Y4.2568
G01 X47.8598 Y4.2171
G01 X47.8712 Y4.1796
G01 X47.8872 Y4.1410
G01 X47.9057 Y4.1064
G01 X47.9282 Y4.0727
G01 X47.9538 Y4.0413
G01 X47.9833 Y4.0118
G01 X48.0147 Y3.9862
G01 X48.0484 Y3.9637
G01 X48.0830 Y3.9452
G01 X48.1216 Y3.9292
G01 X48.1603 Y3.9175
G01 X48.2001 Y3.9097
G01 X48.2391 Y3.9058
G01 X48.2600 Y3.9053
G01 X65.4100 Y3.9053
G00 Z2.0000
G00 X47.8473 Y31.9990
G01 F200.00
G01 Z-0.4000
G01 F200.00
G01 X47.8473 Y55.8800
G01 X47.8478 Y55.9009
G01 X47.8519 Y55.9412
G01 X47.8595 Y55.9797
G01 X47.8712 Y56.0184
G01 X47.8872 Y56.0570
G01 X47.9057 Y56.0916
G01 X47.9282 Y56.1253
G01 X47.9538 Y56.1567
G01 X47.9833 Y56.1862
G01 X48.0147 Y56.2118
G01 X48.0473 Y56.2337
G01 X48.0830 Y56.2528
G01 X48.1216 Y56.2688
G01 X48.1603 Y56.2805
G01 X48.2001 Y56.2883
G01 X48.2391 Y56.2922
G01 X48.2600 Y56.2927
G01 X65.4100 Y56.2927
G00 X65.4100 Y56.2927
G01 F200.00
G01 Z-0.8000
G01 F200.00
G01 X48.2600 Y56.2927
G01 X48.2391 Y56.2922
G01 X48.2001 Y56.2883
G01 X48.1603 Y56.2805
G01 X48.1216 Y56.2688
G01 X48.0830 Y56.2528
G01 X48.0473 Y56.2337
G01 X48.0147 Y56.2118
G01 X47.9833 Y56.1862
G01 X47.9538 Y56.1567
G01 X47.9282 Y56.1253
G01 X47.9057 Y56.0916
G01 X47.8872 Y56.0570
G01 X47.8712 Y56.0184
G01 X47.8595 Y55.9797
G01 X47.8519 Y55.9412
G01 X47.8478 Y55.9009
G01 X47.8473 Y55.8800
G01 X47.8473 Y31.9990
G00 X47.8473 Y31.9990
G01 F200.00
G01 Z-1.2000
G01 F200.00
G01 X47.8473 Y55.8800
G01 X47.8478 Y55.9009
G01 X47.8519 Y55.9412
G01 X47.8595 Y55.9797
G01 X47.8712 Y56.0184
G01 X47.8872 Y56.0570
G01 X47.9057 Y56.0916
G01 X47.9282 Y56.1253
G01 X47.9538 Y56.1567
G01 X47.9833 Y56.1862
G01 X48.0147 Y56.2118
G01 X48.0473 Y56.2337
G01 X48.0830 Y56.2528
G01 X48.1216 Y56.2688
G01 X48.1603 Y56.2805
G01 X48.2001 Y56.2883
G01 X48.2391 Y56.2922
G01 X48.2600 Y56.2927
G01 X65.4100 Y56.2927
G00 Z2.0000
G00 X69.2100 Y56.2927
G01 F200.00
G01 Z-0.4000
G01 F200.00
G01 X86.3600 Y56.2927
G01 X86.3809 Y56.2922
G01 X86.4199 Y56.2883
G01 X86.4597 Y56.2805
G01 X86.4996 Y56.2684
G01 X86.5370 Y56.2528
G01 X86.5727 Y56.2337
G01 X86.6053 Y56.2118
G01 X86.6367 Y56.1862
G01 X86.6654 Y56.1576
G01 X86.6918 Y56.1253
G01 X86.7137 Y56.0927
G01 X86.7328 Y56.0570
G01 X86.7488 Y56.0184
G01 X86.7602 Y55.9809
G01 X86.7681 Y55.9412
G01 X86.7722 Y55.9009
G01 X86.7727 Y55.8800
G01 X86.7727 Y31.9990
G00 X86.7727 Y31.9990
G01 F200.00
G01 Z-0.8000
G01 F200.00
G01 X86.7727 Y55.8800
G01 X86.7722 Y55.9009
G01 X86.7681 Y55.9412
G01 X86.7602 Y55.9809
G01 X86.7488 Y56.0184
G01 X86.7328 Y56.0570
G01 X86.7137 Y56.0927
G01 X86.6918 Y56.1253
G01 X86.6654 Y56.1576
G01 X86.6367 Y56.1862
G01 X86.6053 Y56.2118
G01 X86.5727 Y56.2337
G01 X86.5370 Y56.2528
G01 X86.4996 Y56.2684
G01 X86.4597 Y56.2805
G01 X86.4199 Y56.2883
G01 X86.3809 Y56.2922
G01 X86.3600 Y56.2927
G01 X69.2100 Y56.2927
G00 X69.2100 Y56.2927
G01 F200.00
G01 Z-1.2000
G01 F200.00
G01 X86.3600 Y56.2927
G01 X86.3809 Y56.2922
G01 X86.4199 Y56.2883
G01 X86.4597 Y56.2805
G01 X86.4996 Y56.2684
G01 X86.5370 Y56.2528
G01 X86.5727 Y56.2337
G01 X86.6053 Y56.2118
G01 X86.6367 Y56.1862
G01 X86.6654 Y56.1576
G01 X86.6918 Y56.1253
G01 X86.7137 Y56.0927
G01 X86.7328 Y56.0570
G01 X86.7488 Y56.0184
G01 X86.7602 Y55.9809
G01 X86.7681 Y55.9412
G01 X86.7722 Y55.9009
G01 X86.7727 Y55.8800
G01 X86.7727 Y31.9990
G00 Z2.0000
G00 X86.7727 Y28.1990
G01 F200.00
G01 Z-0.4000
G01 F200.00
G01 X86.7727 Y4.3180
G01 X86.7722 Y4.2971
G01 X86.7681 Y4.2568
G01 X86.7602 Y4.2171
G01 X86.7488 Y4.1796
G01 X86.7328 Y4.1410
G01 X86.7143 Y4.1064
G01 X86.6918 Y4.0727
G01 X86.6654 Y4.0404
G01 X86.6367 Y4.0118
G01 X86.6053 Y3.9862
G01 X86.5727 Y3.9643
G01 X86.5370 Y3.9452
G01 X86.4996 Y3.9296
G01 X86.4597 Y3.9175
G01 X86.4199 Y3.9097
G01 X86.3809 Y3.9058
G01 X86.3600 Y3.9053
G01 X69.2100 Y3.9053
G00 X69.2100 Y3.9053
G01 F200.00
G01 Z-0.8000
G01 F200.00
G01 X86.3600 Y3.9053
G01 X86.3809 Y3.9058
G01 X86.4199 Y3.9097
G01 X86.4597 Y3.9175
G01 X86.4996 Y3.9296
G01 X86.5370 Y3.9452
G01 X86.5727 Y3.9643
G01 X86.6053 Y3.9862
G01 X86.6367 Y4.0118
G01 X86.6654 Y4.0404
G01 X86.6918 Y4.0727
G01 X86.7143 Y4.1064
G01 X86.7328 Y4.1410
G01 X86.7488 Y4.1796
G01 X86.7602 Y4.2171
G01 X86.7681 Y4.2568
G01 X86.7722 Y4.2971
G01 X86.7727 Y4.3180
G01 X86.7727 Y28.1990
G00 X86.7727 Y28.1990
G01 F200.00
G01 Z-1.2000
G01 F200.00
G01 X86.7727 Y4.3180
G01 X86.7722 Y4.2971
G01 X86.7681 Y4.2568
G01 X86.7602 Y4.2171
G01 X86.7488 Y4.1796
G01 X86.7328 Y4.1410
G01 X86.7143 Y4.1064
G01 X86.6918 Y4.0727
G01 X86.6654 Y4.0404
G01 X86.6367 Y4.0118
G01 X86.6053 Y3.9862
G01 X86.5727 Y3.9643
G01 X86.5370 Y3.9452
G01 X86.4996 Y3.9296
G01 X86.4597 Y3.9175
G01 X86.4199 Y3.9097
G01 X86.3809 Y3.9058
G01 X86.3600 Y3.9053
G01 X69.2100 Y3.9053
G00 Z2.0000
G01 F200.00

M5
G00 Z15.0000
G00 X0.0000 Y0.0000
T9999
M6    
(MSG, Change to Tool Dia = 0.8000)
M0
G00 Z15.0000

M03
G4 P2.0
G01 F200.00
G00 X20.9600 Y3.9053
G01 F200.00
G01 Z-0.4000
G01 F200.00
G01 X24.7600 Y3.9053
G00 X24.7600 Y3.9053
G01 F200.00
G01 Z-0.5000
G01 F200.00
G01 X20.9600 Y3.9053
G00 Z2.0000
G00 X3.3973 Y28.1990
G01 F200.00
G01 Z-0.4000
G01 F200.00
G01 X3.3973 Y31.9990
G00 X3.3973 Y31.9990
G01 F200.00
G01 Z-0.5000
G01 F200.00
G01 X3.3973 Y28.1990
G00 Z2.0000
G00 X20.9600 Y56.2927
G01 F200.00
G01 Z-0.4000
G01 F200.00
G01 X24.7600 Y56.2927
G00 X24.7600 Y56.2927
G01 F200.00
G01 Z-0.5000
G01 F200.00
G01 X20.9600 Y56.2927
G00 Z2.0000
G00 X42.3227 Y31.9990
G01 F200.00
G01 Z-0.4000
G01 F200.00
G01 X42.3227 Y28.1990
G00 X42.3227 Y28.1990
G01 F200.00
G01 Z-0.5000
G01 F200.00
G01 X42.3227 Y31.9990
G00 Z2.0000
G00 X47.8473 Y28.1990
G01 F200.00
G01 Z-0.4000
G01 F200.00
G01 X47.8473 Y31.9990
G00 X47.8473 Y31.9990
G01 F200.00
G01 Z-0.5000
G01 F200.00
G01 X47.8473 Y28.1990
G00 Z2.0000
G00 X65.4100 Y56.2927
G01 F200.00
G01 Z-0.4000
G01 F200.00
G01 X69.2100 Y56.2927
G00 X69.2100 Y56.2927
G01 F200.00
G01 Z-0.5000
G01 F200.00
G01 X65.4100 Y56.2927
G00 Z2.0000
G00 X86.7727 Y31.9990
G01 F200.00
G01 Z-0.4000
G01 F200.00
G01 X86.7727 Y28.1990
G00 X86.7727 Y28.1990
G01 F200.00
G01 Z-0.5000
G01 F200.00
G01 X86.7727 Y31.9990
G00 Z2.0000
G00 X69.2100 Y3.9053
G01 F200.00
G01 Z-0.4000
G01 F200.00
G01 X65.4100 Y3.9053
G00 X65.4100 Y3.9053
G01 F200.00
G01 Z-0.5000
G01 F200.00
G01 X69.2100 Y3.9053
G00 Z2.0000
M05
G00 Z2.0000
G00 Z40.00
G00 X0.0 Y0.0


