(G-CODE GENERATED BY FLATCAM v8.994 - www.flatcam.org - Version Date: 2020/11/7)

(Name: drill_1_16.xln_cnc)
(Type: G-code from Geometry)
(Units: MM)

(Created on Tuesday, 05 January 2021 at 12:17)

(This preprocessor is the default preprocessor used by FlatCAM.)
(It is made to work with MACH3 compatible motion controllers.)


(TOOLS DIAMETER: )
(Tool: 1 -> Dia: 0.5)
(Tool: 2 -> Dia: 0.787)
(Tool: 3 -> Dia: 0.8)
(Tool: 4 -> Dia: 1.016)
(Tool: 5 -> Dia: 1.3)
(Tool: 6 -> Dia: 2.54)

(FEEDRATE Z: )
(Tool: 1 -> Feedrate: 400.0)
(Tool: 2 -> Feedrate: 400.0)
(Tool: 3 -> Feedrate: 350.0)
(Tool: 4 -> Feedrate: 350.0)
(Tool: 5 -> Feedrate: 350.0)
(Tool: 6 -> Feedrate: 400.0)

(FEEDRATE RAPIDS: )
(Tool: 1 -> Feedrate Rapids: 1500)
(Tool: 2 -> Feedrate Rapids: 1500)
(Tool: 3 -> Feedrate Rapids: 1500)
(Tool: 4 -> Feedrate Rapids: 1500)
(Tool: 5 -> Feedrate Rapids: 1500)
(Tool: 6 -> Feedrate Rapids: 1500)

(Z_CUT: )
(Tool: 1 -> Z_Cut: -1.4)
(Tool: 2 -> Z_Cut: -1.4)
(Tool: 3 -> Z_Cut: -1.4)
(Tool: 4 -> Z_Cut: -1.4)
(Tool: 5 -> Z_Cut: -1.4)
(Tool: 6 -> Z_Cut: -1.4)

(Tools Offset: )
(Tool: 1 -> Offset Z: 0.0)
(Tool: 2 -> Offset Z: 0.0)
(Tool: 3 -> Offset Z: 0.0)
(Tool: 4 -> Offset Z: 0.0)
(Tool: 5 -> Offset Z: 0.0)

(Z_MOVE: )
(Tool: 1 -> Z_Move: 2)
(Tool: 2 -> Z_Move: 2)
(Tool: 3 -> Z_Move: 2)
(Tool: 4 -> Z_Move: 2)
(Tool: 5 -> Z_Move: 2)
(Tool: 6 -> Z_Move: 2)

(Z Toolchange: 40.0 mm)
(X,Y Toolchange: 0.0000, 0.0000 mm)
(Z Start: None mm)
(Z End: 40.0 mm)
(X,Y End: 0.0000, 0.0000 mm)
(Steps per circle: 64)
(Preprocessor Excellon: default)

(X range:    3.1750 ...   87.6300  mm)
(Y range:    5.0800 ...   45.7200  mm)

(Spindle Speed: 0 RPM)
G21
G90
G94

G01 F400.00

M5
G00 Z40.0000
T1
G00 X0.0000 Y0.0000                
M6
(MSG, Change to Tool Dia = 0.5000 ||| Total drills for tool T1 = 24)
M0
G00 Z40.0000

G01 F400.00
M03
G00 X31.4830 Y16.1760
G01 Z-1.4000
G01 Z0
G00 Z2.0000
G00 X25.9080 Y16.5100
G01 Z-1.4000
G01 Z0
G00 Z2.0000
G00 X24.1300 Y21.5900
G01 Z-1.4000
G01 Z0
G00 Z2.0000
G00 X27.9400 Y24.1300
G01 Z-1.4000
G01 Z0
G00 Z2.0000
G00 X24.0030 Y25.2730
G01 Z-1.4000
G01 Z0
G00 Z2.0000
G00 X11.0490 Y38.4810
G01 Z-1.4000
G01 Z0
G00 Z2.0000
G00 X11.0490 Y35.4330
G01 Z-1.4000
G01 Z0
G00 Z2.0000
G00 X18.2880 Y24.6380
G01 Z-1.4000
G01 Z0
G00 Z2.0000
G00 X12.7000 Y7.6200
G01 Z-1.4000
G01 Z0
G00 Z2.0000
G00 X19.9390 Y10.2870
G01 Z-1.4000
G01 Z0
G00 Z2.0000
G00 X26.1620 Y11.5040
G01 Z-1.4000
G01 Z0
G00 Z2.0000
G00 X31.1150 Y12.1920
G01 Z-1.4000
G01 Z0
G00 Z2.0000
G00 X57.1500 Y7.6200
G01 Z-1.4000
G01 Z0
G00 Z2.0000
G00 X64.3890 Y10.2870
G01 Z-1.4000
G01 Z0
G00 Z2.0000
G00 X70.6120 Y11.5040
G01 Z-1.4000
G01 Z0
G00 Z2.0000
G00 X75.5650 Y12.1920
G01 Z-1.4000
G01 Z0
G00 Z2.0000
G00 X75.9330 Y16.1760
G01 Z-1.4000
G01 Z0
G00 Z2.0000
G00 X70.3580 Y16.5100
G01 Z-1.4000
G01 Z0
G00 Z2.0000
G00 X68.5800 Y21.5900
G01 Z-1.4000
G01 Z0
G00 Z2.0000
G00 X72.3900 Y24.1300
G01 Z-1.4000
G01 Z0
G00 Z2.0000
G00 X68.4530 Y25.2730
G01 Z-1.4000
G01 Z0
G00 Z2.0000
G00 X62.7380 Y24.6380
G01 Z-1.4000
G01 Z0
G00 Z2.0000
G00 X55.4990 Y35.4330
G01 Z-1.4000
G01 Z0
G00 Z2.0000
G00 X55.4990 Y38.4810
G01 Z-1.4000
G01 Z0
G00 Z2.0000
G01 F400.00

M5
G00 Z40.0000
T2
G00 X0.0000 Y0.0000                
M6
(MSG, Change to Tool Dia = 0.7870 ||| Total drills for tool T2 = 12)
M0
G00 Z40.0000

G01 F400.00
M03
G00 X80.0100 Y7.6200
G01 Z-1.4000
G01 Z0
G00 Z2.0000
G00 X77.4700 Y7.6200
G01 Z-1.4000
G01 Z0
G00 Z2.0000
G00 X74.9300 Y7.6200
G01 Z-1.4000
G01 Z0
G00 Z2.0000
G00 X72.3900 Y7.6200
G01 Z-1.4000
G01 Z0
G00 Z2.0000
G00 X69.8500 Y7.6200
G01 Z-1.4000
G01 Z0
G00 Z2.0000
G00 X22.8600 Y7.6200
G01 Z-1.4000
G01 Z0
G00 Z2.0000
G00 X25.4000 Y7.6200
G01 Z-1.4000
G01 Z0
G00 Z2.0000
G00 X27.9400 Y7.6200
G01 Z-1.4000
G01 Z0
G00 Z2.0000
G00 X30.4800 Y7.6200
G01 Z-1.4000
G01 Z0
G00 Z2.0000
G00 X33.0200 Y7.6200
G01 Z-1.4000
G01 Z0
G00 Z2.0000
G00 X35.5600 Y7.6200
G01 Z-1.4000
G01 Z0
G00 Z2.0000
G00 X67.3100 Y7.6200
G01 Z-1.4000
G01 Z0
G00 Z2.0000
G01 F350.00

M5
G00 Z40.0000
T3
G00 X0.0000 Y0.0000                
M6
(MSG, Change to Tool Dia = 0.8000 ||| Total drills for tool T3 = 8)
M0
G00 Z40.0000

G01 F350.00
M03
G00 X59.6900 Y16.5100
G01 Z-1.4000
G01 Z0
G00 Z2.0000
G00 X59.6900 Y11.4300
G01 Z-1.4000
G01 Z0
G00 Z2.0000
G00 X52.0700 Y11.4300
G01 Z-1.4000
G01 Z0
G00 Z2.0000
G00 X15.2400 Y11.4300
G01 Z-1.4000
G01 Z0
G00 Z2.0000
G00 X7.6200 Y11.4300
G01 Z-1.4000
G01 Z0
G00 Z2.0000
G00 X7.6200 Y16.5100
G01 Z-1.4000
G01 Z0
G00 Z2.0000
G00 X15.2400 Y16.5100
G01 Z-1.4000
G01 Z0
G00 Z2.0000
G00 X52.0700 Y16.5100
G01 Z-1.4000
G01 Z0
G00 Z2.0000
G01 F350.00

M5
G00 Z40.0000
T4
G00 X0.0000 Y0.0000                
M6
(MSG, Change to Tool Dia = 1.0160 ||| Total drills for tool T4 = 6)
M0
G00 Z40.0000

G01 F350.00
M03
G00 X78.7400 Y25.4000
G01 Z-1.4000
G01 Z0
G00 Z2.0000
G00 X78.7400 Y27.9400
G01 Z-1.4000
G01 Z0
G00 Z2.0000
G00 X78.7400 Y30.4800
G01 Z-1.4000
G01 Z0
G00 Z2.0000
G00 X34.2900 Y30.4800
G01 Z-1.4000
G01 Z0
G00 Z2.0000
G00 X34.2900 Y27.9400
G01 Z-1.4000
G01 Z0
G00 Z2.0000
G00 X34.2900 Y25.4000
G01 Z-1.4000
G01 Z0
G00 Z2.0000
G01 F350.00

M5
G00 Z40.0000
T5
G00 X0.0000 Y0.0000                
M6
(MSG, Change to Tool Dia = 1.3000 ||| Total drills for tool T5 = 4)
M0
G00 Z40.0000

G01 F350.00
M03
G00 X52.0700 Y44.4500
G01 Z-1.4000
G01 Z0
G00 Z2.0000
G00 X52.0700 Y40.6400
G01 Z-1.4000
G01 Z0
G00 Z2.0000
G00 X7.6200 Y40.6400
G01 Z-1.4000
G01 Z0
G00 Z2.0000
G00 X7.6200 Y44.4500
G01 Z-1.4000
G01 Z0
G00 Z2.0000
M05
G00 Z40.00
G00 X0.0 Y0.0


