(G-CODE GENERATED BY FLATCAM v8.994 - www.flatcam.org - Version Date: 2020/11/7)

(Name: profile.gbr_cutout_cnc)
(Type: G-code from Geometry)
(Units: MM)

(Created on Tuesday, 05 January 2021 at 12:23)

(This preprocessor is the default preprocessor used by FlatCAM.)
(It is made to work with MACH3 compatible motion controllers.)

(TOOL DIAMETER: 0.8 mm)
(Feedrate_XY: 120.0 mm/min)
(Feedrate_Z: 200.0 mm/min)
(Feedrate rapids 1500.0 mm/min)

(Z_Cut: -1.2 mm)
(Z_Move: 2.0 mm)
(Z Start: None mm)
(Z End: 40.0 mm)
(X,Y End: 0.0000, 0.0000 mm)
(Steps per circle: 64)
(Preprocessor Geometry: default)

(X range:   -0.5271 ...   91.6371  mm)
(Y range:   -0.5271 ...   50.0471  mm)

(Spindle Speed: 0.0 RPM)
G21
G90
G94

G01 F120.00

M5
G00 Z15.0000
G00 X0.0000 Y0.0000
T1
M6    
(MSG, Change to Tool Dia = 0.8000)
M0
G00 Z15.0000

M03
G01 F120.00
G00 X91.2371 Y-0.5271
G01 F200.00
G01 Z-1.2000
G01 F120.00
G01 X-0.1271 Y-0.5271
G01 X-0.1663 Y-0.5251
G01 X-0.2051 Y-0.5194
G01 X-0.2432 Y-0.5098
G01 X-0.2801 Y-0.4966
G01 X-0.3156 Y-0.4798
G01 X-0.3493 Y-0.4597
G01 X-0.3808 Y-0.4363
G01 X-0.4099 Y-0.4099
G01 X-0.4363 Y-0.3808
G01 X-0.4597 Y-0.3493
G01 X-0.4798 Y-0.3156
G01 X-0.4966 Y-0.2801
G01 X-0.5098 Y-0.2432
G01 X-0.5194 Y-0.2051
G01 X-0.5251 Y-0.1663
G01 X-0.5271 Y-0.1271
G01 X-0.5271 Y49.6471
G01 X-0.5251 Y49.6863
G01 X-0.5194 Y49.7251
G01 X-0.5098 Y49.7632
G01 X-0.4966 Y49.8001
G01 X-0.4798 Y49.8356
G01 X-0.4597 Y49.8693
G01 X-0.4363 Y49.9008
G01 X-0.4099 Y49.9299
G01 X-0.3808 Y49.9563
G01 X-0.3493 Y49.9797
G01 X-0.3156 Y49.9998
G01 X-0.2801 Y50.0166
G01 X-0.2432 Y50.0298
G01 X-0.2051 Y50.0394
G01 X-0.1663 Y50.0451
G01 X-0.1271 Y50.0471
G01 X91.2371 Y50.0471
G01 X91.2763 Y50.0451
G01 X91.3151 Y50.0394
G01 X91.3532 Y50.0298
G01 X91.3901 Y50.0166
G01 X91.4256 Y49.9998
G01 X91.4593 Y49.9797
G01 X91.4908 Y49.9563
G01 X91.5199 Y49.9299
G01 X91.5463 Y49.9008
G01 X91.5697 Y49.8693
G01 X91.5898 Y49.8356
G01 X91.6066 Y49.8001
G01 X91.6198 Y49.7632
G01 X91.6294 Y49.7251
G01 X91.6351 Y49.6863
G01 X91.6371 Y49.6471
G01 X91.6371 Y-0.1271
G01 X91.6351 Y-0.1663
G01 X91.6294 Y-0.2051
G01 X91.6198 Y-0.2432
G01 X91.6066 Y-0.2801
G01 X91.5898 Y-0.3156
G01 X91.5697 Y-0.3493
G01 X91.5463 Y-0.3808
G01 X91.5199 Y-0.4099
G01 X91.4908 Y-0.4363
G01 X91.4593 Y-0.4597
G01 X91.4256 Y-0.4798
G01 X91.3901 Y-0.4966
G01 X91.3532 Y-0.5098
G01 X91.3151 Y-0.5194
G01 X91.2763 Y-0.5251
G01 X91.2371 Y-0.5271
G00 Z2.0000
M05
G00 Z2.0000
G00 Z40.00
G00 X0.0 Y0.0


