(G-CODE GENERATED BY FLATCAM v8.994 - www.flatcam.org - Version Date: 2020/11/7)

(Name: drill_1_16.xln_cnc)
(Type: G-code from Geometry)
(Units: MM)

(Created on Monday, 28 December 2020 at 15:33)

(This preprocessor is the default preprocessor used by FlatCAM.)
(It is made to work with MACH3 compatible motion controllers.)


(TOOLS DIAMETER: )
(Tool: 1 -> Dia: 0.35)
(Tool: 2 -> Dia: 0.5)
(Tool: 3 -> Dia: 0.9)
(Tool: 4 -> Dia: 1.016)
(Tool: 5 -> Dia: 2.997)

(FEEDRATE Z: )
(Tool: 1 -> Feedrate: 400.0)
(Tool: 2 -> Feedrate: 400.0)
(Tool: 3 -> Feedrate: 350.0)
(Tool: 4 -> Feedrate: 350.0)
(Tool: 5 -> Feedrate: 400.0)

(FEEDRATE RAPIDS: )
(Tool: 1 -> Feedrate Rapids: 1500)
(Tool: 2 -> Feedrate Rapids: 1500)
(Tool: 3 -> Feedrate Rapids: 1500)
(Tool: 4 -> Feedrate Rapids: 1500)
(Tool: 5 -> Feedrate Rapids: 1500)

(Z_CUT: )
(Tool: 1 -> Z_Cut: -1.2)
(Tool: 2 -> Z_Cut: -1.2)
(Tool: 3 -> Z_Cut: -1.2)
(Tool: 4 -> Z_Cut: -1.2)
(Tool: 5 -> Z_Cut: -1.2)

(Tools Offset: )
(Tool: 1 -> Offset Z: 0.0)
(Tool: 2 -> Offset Z: 0.0)
(Tool: 3 -> Offset Z: 0.0)
(Tool: 4 -> Offset Z: 0.0)

(Z_MOVE: )
(Tool: 1 -> Z_Move: 2.0)
(Tool: 2 -> Z_Move: 2.0)
(Tool: 3 -> Z_Move: 2.0)
(Tool: 4 -> Z_Move: 2.0)
(Tool: 5 -> Z_Move: 2.0)

(Z Toolchange: 40.0 mm)
(X,Y Toolchange: 0.0000, 0.0000 mm)
(Z Start: None mm)
(Z End: 40.0 mm)
(X,Y End: 0.0000, 0.0000 mm)
(Steps per circle: 64)
(Preprocessor Excellon: default)

(X range:    6.1215 ...   84.0485  mm)
(Y range:    7.3915 ...   53.5685  mm)

(Spindle Speed: 0 RPM)
G21
G90
G94

G01 F400.00

M5
G00 Z40.0000
T1
G00 X0.0000 Y0.0000                
M6
(MSG, Change to Tool Dia = 0.3500 ||| Total drills for tool T1 = 118)
M0
G00 Z40.0000

G01 F400.00
M03
G4 P2.0
G00 X36.1950 Y41.2750
G01 Z-1.2000
G01 Z0
G00 Z2.0000
G00 X36.1950 Y40.0050
G01 Z-1.2000
G01 Z0
G00 Z2.0000
G00 X31.7500 Y40.6400
G01 Z-1.2000
G01 Z0
G00 Z2.0000
G00 X29.2100 Y40.6400
G01 Z-1.2000
G01 Z0
G00 Z2.0000
G00 X26.6700 Y40.6400
G01 Z-1.2000
G01 Z0
G00 Z2.0000
G00 X19.0500 Y53.3400
G01 Z-1.2000
G01 Z0
G00 Z2.0000
G00 X19.0500 Y50.8000
G01 Z-1.2000
G01 Z0
G00 Z2.0000
G00 X19.0500 Y48.2600
G01 Z-1.2000
G01 Z0
G00 Z2.0000
G00 X18.4150 Y45.7200
G01 Z-1.2000
G01 Z0
G00 Z2.0000
G00 X16.5100 Y44.4500
G01 Z-1.2000
G01 Z0
G00 Z2.0000
G00 X13.9700 Y44.4500
G01 Z-1.2000
G01 Z0
G00 Z2.0000
G00 X11.4300 Y44.4500
G01 Z-1.2000
G01 Z0
G00 Z2.0000
G00 X8.8900 Y44.4500
G01 Z-1.2000
G01 Z0
G00 Z2.0000
G00 X6.3500 Y44.4500
G01 Z-1.2000
G01 Z0
G00 Z2.0000
G00 X6.3500 Y41.9100
G01 Z-1.2000
G01 Z0
G00 Z2.0000
G00 X6.3500 Y38.1000
G01 Z-1.2000
G01 Z0
G00 Z2.0000
G00 X8.8900 Y38.1000
G01 Z-1.2000
G01 Z0
G00 Z2.0000
G00 X11.4300 Y38.1000
G01 Z-1.2000
G01 Z0
G00 Z2.0000
G00 X13.0170 Y33.6550
G01 Z-1.2000
G01 Z0
G00 Z2.0000
G00 X16.5100 Y41.9100
G01 Z-1.2000
G01 Z0
G00 Z2.0000
G00 X24.1300 Y40.6400
G01 Z-1.2000
G01 Z0
G00 Z2.0000
G00 X24.1300 Y38.1000
G01 Z-1.2000
G01 Z0
G00 Z2.0000
G00 X26.6700 Y38.1000
G01 Z-1.2000
G01 Z0
G00 Z2.0000
G00 X29.2100 Y38.1000
G01 Z-1.2000
G01 Z0
G00 Z2.0000
G00 X31.7500 Y38.1000
G01 Z-1.2000
G01 Z0
G00 Z2.0000
G00 X31.7500 Y35.5600
G01 Z-1.2000
G01 Z0
G00 Z2.0000
G00 X29.2100 Y35.5600
G01 Z-1.2000
G01 Z0
G00 Z2.0000
G00 X26.6700 Y35.5600
G01 Z-1.2000
G01 Z0
G00 Z2.0000
G00 X24.1300 Y35.5600
G01 Z-1.2000
G01 Z0
G00 Z2.0000
G00 X23.8120 Y31.7500
G01 Z-1.2000
G01 Z0
G00 Z2.0000
G00 X25.0820 Y30.4800
G01 Z-1.2000
G01 Z0
G00 Z2.0000
G00 X25.0820 Y27.9400
G01 Z-1.2000
G01 Z0
G00 Z2.0000
G00 X20.0030 Y26.6700
G01 Z-1.2000
G01 Z0
G00 Z2.0000
G00 X20.0030 Y24.1300
G01 Z-1.2000
G01 Z0
G00 Z2.0000
G00 X17.4630 Y24.1300
G01 Z-1.2000
G01 Z0
G00 Z2.0000
G00 X17.4630 Y26.6700
G01 Z-1.2000
G01 Z0
G00 Z2.0000
G00 X12.7000 Y26.6700
G01 Z-1.2000
G01 Z0
G00 Z2.0000
G00 X12.7000 Y24.1300
G01 Z-1.2000
G01 Z0
G00 Z2.0000
G00 X10.1600 Y24.1300
G01 Z-1.2000
G01 Z0
G00 Z2.0000
G00 X7.3020 Y17.4630
G01 Z-1.2000
G01 Z0
G00 Z2.0000
G00 X7.3020 Y14.9220
G01 Z-1.2000
G01 Z0
G00 Z2.0000
G00 X7.3020 Y12.3820
G01 Z-1.2000
G01 Z0
G00 Z2.0000
G00 X9.8430 Y12.3820
G01 Z-1.2000
G01 Z0
G00 Z2.0000
G00 X9.8430 Y14.9220
G01 Z-1.2000
G01 Z0
G00 Z2.0000
G00 X16.5100 Y17.4630
G01 Z-1.2000
G01 Z0
G00 Z2.0000
G00 X21.5900 Y17.4630
G01 Z-1.2000
G01 Z0
G00 Z2.0000
G00 X25.4000 Y18.4150
G01 Z-1.2000
G01 Z0
G00 Z2.0000
G00 X26.9870 Y17.1450
G01 Z-1.2000
G01 Z0
G00 Z2.0000
G00 X33.0200 Y10.4780
G01 Z-1.2000
G01 Z0
G00 Z2.0000
G00 X33.0200 Y13.0170
G01 Z-1.2000
G01 Z0
G00 Z2.0000
G00 X33.0200 Y15.5570
G01 Z-1.2000
G01 Z0
G00 Z2.0000
G00 X38.1000 Y22.5420
G01 Z-1.2000
G01 Z0
G00 Z2.0000
G00 X36.8300 Y23.8120
G01 Z-1.2000
G01 Z0
G00 Z2.0000
G00 X36.8300 Y25.4000
G01 Z-1.2000
G01 Z0
G00 Z2.0000
G00 X38.1000 Y25.4000
G01 Z-1.2000
G01 Z0
G00 Z2.0000
G00 X39.3700 Y25.4000
G01 Z-1.2000
G01 Z0
G00 Z2.0000
G00 X39.3700 Y23.8120
G01 Z-1.2000
G01 Z0
G00 Z2.0000
G00 X38.1000 Y23.8120
G01 Z-1.2000
G01 Z0
G00 Z2.0000
G00 X39.3700 Y22.5420
G01 Z-1.2000
G01 Z0
G00 Z2.0000
G00 X51.7520 Y17.4630
G01 Z-1.2000
G01 Z0
G00 Z2.0000
G00 X51.7520 Y14.9220
G01 Z-1.2000
G01 Z0
G00 Z2.0000
G00 X51.7520 Y12.3820
G01 Z-1.2000
G01 Z0
G00 Z2.0000
G00 X54.2920 Y12.3820
G01 Z-1.2000
G01 Z0
G00 Z2.0000
G00 X54.2920 Y14.9220
G01 Z-1.2000
G01 Z0
G00 Z2.0000
G00 X60.9600 Y17.4630
G01 Z-1.2000
G01 Z0
G00 Z2.0000
G00 X66.0400 Y17.4630
G01 Z-1.2000
G01 Z0
G00 Z2.0000
G00 X69.8500 Y18.4150
G01 Z-1.2000
G01 Z0
G00 Z2.0000
G00 X71.4380 Y17.1450
G01 Z-1.2000
G01 Z0
G00 Z2.0000
G00 X77.4700 Y10.4780
G01 Z-1.2000
G01 Z0
G00 Z2.0000
G00 X77.4700 Y13.0170
G01 Z-1.2000
G01 Z0
G00 Z2.0000
G00 X77.4700 Y15.5570
G01 Z-1.2000
G01 Z0
G00 Z2.0000
G00 X82.5500 Y22.5420
G01 Z-1.2000
G01 Z0
G00 Z2.0000
G00 X81.2800 Y23.8120
G01 Z-1.2000
G01 Z0
G00 Z2.0000
G00 X81.2800 Y25.4000
G01 Z-1.2000
G01 Z0
G00 Z2.0000
G00 X82.5500 Y25.4000
G01 Z-1.2000
G01 Z0
G00 Z2.0000
G00 X82.5500 Y23.8120
G01 Z-1.2000
G01 Z0
G00 Z2.0000
G00 X83.8200 Y22.5420
G01 Z-1.2000
G01 Z0
G00 Z2.0000
G00 X83.8200 Y23.8120
G01 Z-1.2000
G01 Z0
G00 Z2.0000
G00 X83.8200 Y25.4000
G01 Z-1.2000
G01 Z0
G00 Z2.0000
G00 X76.2000 Y35.5600
G01 Z-1.2000
G01 Z0
G00 Z2.0000
G00 X73.6600 Y35.5600
G01 Z-1.2000
G01 Z0
G00 Z2.0000
G00 X71.1200 Y35.5600
G01 Z-1.2000
G01 Z0
G00 Z2.0000
G00 X68.5800 Y35.5600
G01 Z-1.2000
G01 Z0
G00 Z2.0000
G00 X68.2630 Y31.7500
G01 Z-1.2000
G01 Z0
G00 Z2.0000
G00 X69.5330 Y30.4800
G01 Z-1.2000
G01 Z0
G00 Z2.0000
G00 X69.5330 Y27.9400
G01 Z-1.2000
G01 Z0
G00 Z2.0000
G00 X64.4520 Y26.6700
G01 Z-1.2000
G01 Z0
G00 Z2.0000
G00 X61.9120 Y26.6700
G01 Z-1.2000
G01 Z0
G00 Z2.0000
G00 X64.4520 Y24.1300
G01 Z-1.2000
G01 Z0
G00 Z2.0000
G00 X61.9120 Y24.1300
G01 Z-1.2000
G01 Z0
G00 Z2.0000
G00 X57.1500 Y24.1300
G01 Z-1.2000
G01 Z0
G00 Z2.0000
G00 X54.6100 Y24.1300
G01 Z-1.2000
G01 Z0
G00 Z2.0000
G00 X57.1500 Y26.6700
G01 Z-1.2000
G01 Z0
G00 Z2.0000
G00 X57.4670 Y33.6550
G01 Z-1.2000
G01 Z0
G00 Z2.0000
G00 X55.8800 Y38.1000
G01 Z-1.2000
G01 Z0
G00 Z2.0000
G00 X60.9600 Y41.9100
G01 Z-1.2000
G01 Z0
G00 Z2.0000
G00 X68.5800 Y38.1000
G01 Z-1.2000
G01 Z0
G00 Z2.0000
G00 X71.1200 Y38.1000
G01 Z-1.2000
G01 Z0
G00 Z2.0000
G00 X73.6600 Y38.1000
G01 Z-1.2000
G01 Z0
G00 Z2.0000
G00 X76.2000 Y38.1000
G01 Z-1.2000
G01 Z0
G00 Z2.0000
G00 X80.6450 Y40.0050
G01 Z-1.2000
G01 Z0
G00 Z2.0000
G00 X80.6450 Y41.2750
G01 Z-1.2000
G01 Z0
G00 Z2.0000
G00 X76.2000 Y40.6400
G01 Z-1.2000
G01 Z0
G00 Z2.0000
G00 X73.6600 Y40.6400
G01 Z-1.2000
G01 Z0
G00 Z2.0000
G00 X71.1200 Y40.6400
G01 Z-1.2000
G01 Z0
G00 Z2.0000
G00 X68.5800 Y40.6400
G01 Z-1.2000
G01 Z0
G00 Z2.0000
G00 X63.5000 Y53.3400
G01 Z-1.2000
G01 Z0
G00 Z2.0000
G00 X63.5000 Y50.8000
G01 Z-1.2000
G01 Z0
G00 Z2.0000
G00 X63.5000 Y48.2600
G01 Z-1.2000
G01 Z0
G00 Z2.0000
G00 X62.8650 Y45.7200
G01 Z-1.2000
G01 Z0
G00 Z2.0000
G00 X60.9600 Y44.4500
G01 Z-1.2000
G01 Z0
G00 Z2.0000
G00 X58.4200 Y44.4500
G01 Z-1.2000
G01 Z0
G00 Z2.0000
G00 X55.8800 Y44.4500
G01 Z-1.2000
G01 Z0
G00 Z2.0000
G00 X53.3400 Y44.4500
G01 Z-1.2000
G01 Z0
G00 Z2.0000
G00 X50.8000 Y44.4500
G01 Z-1.2000
G01 Z0
G00 Z2.0000
G00 X50.8000 Y41.9100
G01 Z-1.2000
G01 Z0
G00 Z2.0000
G00 X53.3400 Y38.1000
G01 Z-1.2000
G01 Z0
G00 Z2.0000
G00 X50.8000 Y38.1000
G01 Z-1.2000
G01 Z0
G00 Z2.0000
G01 F400.00

M5
G00 Z40.0000
T2
G00 X0.0000 Y0.0000                
M6
(MSG, Change to Tool Dia = 0.5000 ||| Total drills for tool T2 = 8)
M0
G00 Z40.0000

G01 F400.00
M03
G4 P2.0
G00 X7.3020 Y29.8450
G01 Z-1.2000
G01 Z0
G00 Z2.0000
G00 X19.0500 Y19.3680
G01 Z-1.2000
G01 Z0
G00 Z2.0000
G00 X63.5000 Y19.3680
G01 Z-1.2000
G01 Z0
G00 Z2.0000
G00 X71.1200 Y27.9400
G01 Z-1.2000
G01 Z0
G00 Z2.0000
G00 X68.2630 Y33.3380
G01 Z-1.2000
G01 Z0
G00 Z2.0000
G00 X51.7520 Y29.8450
G01 Z-1.2000
G01 Z0
G00 Z2.0000
G00 X26.6700 Y27.9400
G01 Z-1.2000
G01 Z0
G00 Z2.0000
G00 X23.8120 Y33.3380
G01 Z-1.2000
G01 Z0
G00 Z2.0000
G01 F350.00

M5
G00 Z40.0000
T3
G00 X0.0000 Y0.0000                
M6
(MSG, Change to Tool Dia = 0.9000 ||| Total drills for tool T3 = 4)
M0
G00 Z40.0000

G01 F350.00
M03
G4 P2.0
G00 X82.5500 Y29.2100
G01 Z-1.2000
G01 Z0
G00 Z2.0000
G00 X82.5500 Y27.2100
G01 Z-1.2000
G01 Z0
G00 Z2.0000
G00 X38.1000 Y29.2100
G01 Z-1.2000
G01 Z0
G00 Z2.0000
G00 X38.1000 Y27.2100
G01 Z-1.2000
G01 Z0
G00 Z2.0000
G01 F350.00

M5
G00 Z40.0000
T4
G00 X0.0000 Y0.0000                
M6
(MSG, Change to Tool Dia = 1.0160 ||| Total drills for tool T4 = 24)
M0
G00 Z40.0000

G01 F350.00
M03
G4 P2.0
G00 X51.5620 Y27.8130
G01 Z-1.2000
G01 Z0
G00 Z2.0000
G00 X51.5620 Y25.2730
G01 Z-1.2000
G01 Z0
G00 Z2.0000
G00 X51.5620 Y22.7330
G01 Z-1.2000
G01 Z0
G00 Z2.0000
G00 X51.5620 Y20.1930
G01 Z-1.2000
G01 Z0
G00 Z2.0000
G00 X74.9300 Y15.2400
G01 Z-1.2000
G01 Z0
G00 Z2.0000
G00 X72.3900 Y15.2400
G01 Z-1.2000
G01 Z0
G00 Z2.0000
G00 X69.8500 Y15.2400
G01 Z-1.2000
G01 Z0
G00 Z2.0000
G00 X67.3100 Y15.2400
G01 Z-1.2000
G01 Z0
G00 Z2.0000
G00 X64.7700 Y15.2400
G01 Z-1.2000
G01 Z0
G00 Z2.0000
G00 X62.2300 Y15.2400
G01 Z-1.2000
G01 Z0
G00 Z2.0000
G00 X59.6900 Y15.2400
G01 Z-1.2000
G01 Z0
G00 Z2.0000
G00 X57.1500 Y15.2400
G01 Z-1.2000
G01 Z0
G00 Z2.0000
G00 X30.4800 Y15.2400
G01 Z-1.2000
G01 Z0
G00 Z2.0000
G00 X27.9400 Y15.2400
G01 Z-1.2000
G01 Z0
G00 Z2.0000
G00 X25.4000 Y15.2400
G01 Z-1.2000
G01 Z0
G00 Z2.0000
G00 X22.8600 Y15.2400
G01 Z-1.2000
G01 Z0
G00 Z2.0000
G00 X20.3200 Y15.2400
G01 Z-1.2000
G01 Z0
G00 Z2.0000
G00 X17.7800 Y15.2400
G01 Z-1.2000
G01 Z0
G00 Z2.0000
G00 X15.2400 Y15.2400
G01 Z-1.2000
G01 Z0
G00 Z2.0000
G00 X12.7000 Y15.2400
G01 Z-1.2000
G01 Z0
G00 Z2.0000
G00 X7.1120 Y20.1930
G01 Z-1.2000
G01 Z0
G00 Z2.0000
G00 X7.1120 Y22.7330
G01 Z-1.2000
G01 Z0
G00 Z2.0000
G00 X7.1120 Y25.2730
G01 Z-1.2000
G01 Z0
G00 Z2.0000
G00 X7.1120 Y27.8130
G01 Z-1.2000
G01 Z0
G00 Z2.0000
M05
G00 Z40.00
G00 X0.0 Y0.0


