(G-CODE GENERATED BY FLATCAM v8.994 - www.flatcam.org - Version Date: 2020/11/7)

(Name: Other.gbr_cutout_cnc)
(Type: G-code from Geometry)
(Units: MM)

(Created on Tuesday, 05 January 2021 at 12:22)

(This preprocessor is the default preprocessor used by FlatCAM.)
(It is made to work with MACH3 compatible motion controllers.)

(TOOL DIAMETER: 0.8 mm)
(Feedrate_XY: 120.0 mm/min)
(Feedrate_Z: 200.0 mm/min)
(Feedrate rapids 1500.0 mm/min)

(Z_Cut: -1.2 mm)
(Z_Move: 2.0 mm)
(Z Start: None mm)
(Z End: 40.0 mm)
(X,Y End: 0.0000, 0.0000 mm)
(Steps per circle: 64)
(Preprocessor Geometry: default)

(X range:    2.0765 ...   90.6335  mm)
(Y range:    2.0765 ...   47.4535  mm)

(Spindle Speed: 0.0 RPM)
G21
G90
G94

G01 F120.00

M5
G00 Z15.0000
G00 X0.0000 Y0.0000
T1
M6    
(MSG, Change to Tool Dia = 0.8000)
M0
G00 Z15.0000

M03
G01 F120.00
G00 X2.0765 Y46.9900
G01 F200.00
G01 Z-1.2000
G01 F120.00
G01 X2.0773 Y47.0159
G01 X2.0811 Y47.0549
G01 X2.0820 Y47.0611
G01 X2.0897 Y47.0996
G01 X2.0912 Y47.1056
G01 X2.1026 Y47.1432
G01 X2.1047 Y47.1491
G01 X2.1197 Y47.1853
G01 X2.1224 Y47.1910
G01 X2.1409 Y47.2256
G01 X2.1441 Y47.2309
G01 X2.1659 Y47.2636
G01 X2.1696 Y47.2686
G01 X2.1945 Y47.2989
G01 X2.1987 Y47.3035
G01 X2.2265 Y47.3313
G01 X2.2311 Y47.3355
G01 X2.2614 Y47.3604
G01 X2.2664 Y47.3641
G01 X2.2991 Y47.3859
G01 X2.3044 Y47.3891
G01 X2.3390 Y47.4076
G01 X2.3447 Y47.4103
G01 X2.3809 Y47.4253
G01 X2.3868 Y47.4274
G01 X2.4244 Y47.4388
G01 X2.4304 Y47.4403
G01 X2.4689 Y47.4480
G01 X2.4751 Y47.4489
G01 X2.5141 Y47.4527
G01 X2.5400 Y47.4535
G01 X45.7200 Y47.4535
G01 X45.7459 Y47.4527
G01 X45.7849 Y47.4489
G01 X45.7911 Y47.4480
G01 X45.8296 Y47.4403
G01 X45.8356 Y47.4388
G01 X45.8732 Y47.4274
G01 X45.8791 Y47.4253
G01 X45.9153 Y47.4103
G01 X45.9210 Y47.4076
G01 X45.9556 Y47.3891
G01 X45.9609 Y47.3859
G01 X45.9936 Y47.3641
G01 X45.9986 Y47.3604
G01 X46.0289 Y47.3355
G01 X46.0335 Y47.3313
G01 X46.0613 Y47.3035
G01 X46.0655 Y47.2989
G01 X46.0904 Y47.2686
G01 X46.0941 Y47.2636
G01 X46.1159 Y47.2309
G01 X46.1191 Y47.2256
G01 X46.1376 Y47.1910
G01 X46.1403 Y47.1853
G01 X46.1553 Y47.1491
G01 X46.1574 Y47.1432
G01 X46.1688 Y47.1056
G01 X46.1703 Y47.0996
G01 X46.1780 Y47.0611
G01 X46.1789 Y47.0549
G01 X46.1827 Y47.0159
G01 X46.1835 Y46.9900
G01 X46.1835 Y2.5400
G01 X46.1827 Y2.5141
G01 X46.1789 Y2.4751
G01 X46.1780 Y2.4689
G01 X46.1703 Y2.4304
G01 X46.1688 Y2.4244
G01 X46.1574 Y2.3868
G01 X46.1553 Y2.3809
G01 X46.1403 Y2.3447
G01 X46.1376 Y2.3390
G01 X46.1191 Y2.3044
G01 X46.1159 Y2.2991
G01 X46.0941 Y2.2664
G01 X46.0904 Y2.2614
G01 X46.0655 Y2.2311
G01 X46.0613 Y2.2265
G01 X46.0335 Y2.1987
G01 X46.0289 Y2.1945
G01 X45.9986 Y2.1696
G01 X45.9936 Y2.1659
G01 X45.9609 Y2.1441
G01 X45.9556 Y2.1409
G01 X45.9210 Y2.1224
G01 X45.9153 Y2.1197
G01 X45.8791 Y2.1047
G01 X45.8732 Y2.1026
G01 X45.8356 Y2.0912
G01 X45.8296 Y2.0897
G01 X45.7911 Y2.0820
G01 X45.7849 Y2.0811
G01 X45.7459 Y2.0773
G01 X45.7200 Y2.0765
G01 X2.5400 Y2.0765
G01 X2.5141 Y2.0773
G01 X2.4751 Y2.0811
G01 X2.4689 Y2.0820
G01 X2.4304 Y2.0897
G01 X2.4244 Y2.0912
G01 X2.3868 Y2.1026
G01 X2.3809 Y2.1047
G01 X2.3447 Y2.1197
G01 X2.3390 Y2.1224
G01 X2.3044 Y2.1409
G01 X2.2991 Y2.1441
G01 X2.2664 Y2.1659
G01 X2.2614 Y2.1696
G01 X2.2311 Y2.1945
G01 X2.2265 Y2.1987
G01 X2.1987 Y2.2265
G01 X2.1945 Y2.2311
G01 X2.1696 Y2.2614
G01 X2.1659 Y2.2664
G01 X2.1441 Y2.2991
G01 X2.1409 Y2.3044
G01 X2.1224 Y2.3390
G01 X2.1197 Y2.3447
G01 X2.1047 Y2.3809
G01 X2.1026 Y2.3868
G01 X2.0912 Y2.4244
G01 X2.0897 Y2.4304
G01 X2.0820 Y2.4689
G01 X2.0811 Y2.4751
G01 X2.0773 Y2.5141
G01 X2.0765 Y2.5400
G01 X2.0765 Y46.9900
G00 Z2.0000
G00 X46.5265 Y46.9900
G01 F200.00
G01 Z-1.2000
G01 F120.00
G01 X46.5273 Y47.0159
G01 X46.5311 Y47.0549
G01 X46.5320 Y47.0611
G01 X46.5397 Y47.0996
G01 X46.5412 Y47.1056
G01 X46.5526 Y47.1432
G01 X46.5547 Y47.1491
G01 X46.5697 Y47.1853
G01 X46.5724 Y47.1910
G01 X46.5909 Y47.2256
G01 X46.5941 Y47.2309
G01 X46.6159 Y47.2636
G01 X46.6196 Y47.2686
G01 X46.6445 Y47.2989
G01 X46.6487 Y47.3035
G01 X46.6765 Y47.3313
G01 X46.6811 Y47.3355
G01 X46.7114 Y47.3604
G01 X46.7164 Y47.3641
G01 X46.7491 Y47.3859
G01 X46.7544 Y47.3891
G01 X46.7890 Y47.4076
G01 X46.7947 Y47.4103
G01 X46.8309 Y47.4253
G01 X46.8368 Y47.4274
G01 X46.8744 Y47.4388
G01 X46.8804 Y47.4403
G01 X46.9189 Y47.4480
G01 X46.9251 Y47.4489
G01 X46.9641 Y47.4527
G01 X46.9900 Y47.4535
G01 X90.1700 Y47.4535
G01 X90.1959 Y47.4527
G01 X90.2349 Y47.4489
G01 X90.2411 Y47.4480
G01 X90.2796 Y47.4403
G01 X90.2856 Y47.4388
G01 X90.3232 Y47.4274
G01 X90.3291 Y47.4253
G01 X90.3653 Y47.4103
G01 X90.3710 Y47.4076
G01 X90.4056 Y47.3891
G01 X90.4109 Y47.3859
G01 X90.4436 Y47.3641
G01 X90.4486 Y47.3604
G01 X90.4789 Y47.3355
G01 X90.4835 Y47.3313
G01 X90.5113 Y47.3035
G01 X90.5155 Y47.2989
G01 X90.5404 Y47.2686
G01 X90.5441 Y47.2636
G01 X90.5659 Y47.2309
G01 X90.5691 Y47.2256
G01 X90.5876 Y47.1910
G01 X90.5903 Y47.1853
G01 X90.6053 Y47.1491
G01 X90.6074 Y47.1432
G01 X90.6188 Y47.1056
G01 X90.6203 Y47.0996
G01 X90.6280 Y47.0611
G01 X90.6289 Y47.0549
G01 X90.6327 Y47.0159
G01 X90.6335 Y46.9900
G01 X90.6335 Y2.5400
G01 X90.6327 Y2.5141
G01 X90.6289 Y2.4751
G01 X90.6280 Y2.4689
G01 X90.6203 Y2.4304
G01 X90.6188 Y2.4244
G01 X90.6074 Y2.3868
G01 X90.6053 Y2.3809
G01 X90.5903 Y2.3447
G01 X90.5876 Y2.3390
G01 X90.5691 Y2.3044
G01 X90.5659 Y2.2991
G01 X90.5441 Y2.2664
G01 X90.5404 Y2.2614
G01 X90.5155 Y2.2311
G01 X90.5113 Y2.2265
G01 X90.4835 Y2.1987
G01 X90.4789 Y2.1945
G01 X90.4486 Y2.1696
G01 X90.4436 Y2.1659
G01 X90.4109 Y2.1441
G01 X90.4056 Y2.1409
G01 X90.3710 Y2.1224
G01 X90.3653 Y2.1197
G01 X90.3291 Y2.1047
G01 X90.3232 Y2.1026
G01 X90.2856 Y2.0912
G01 X90.2796 Y2.0897
G01 X90.2411 Y2.0820
G01 X90.2349 Y2.0811
G01 X90.1959 Y2.0773
G01 X90.1700 Y2.0765
G01 X46.9900 Y2.0765
G01 X46.9641 Y2.0773
G01 X46.9251 Y2.0811
G01 X46.9189 Y2.0820
G01 X46.8804 Y2.0897
G01 X46.8744 Y2.0912
G01 X46.8368 Y2.1026
G01 X46.8309 Y2.1047
G01 X46.7947 Y2.1197
G01 X46.7890 Y2.1224
G01 X46.7544 Y2.1409
G01 X46.7491 Y2.1441
G01 X46.7164 Y2.1659
G01 X46.7114 Y2.1696
G01 X46.6811 Y2.1945
G01 X46.6765 Y2.1987
G01 X46.6487 Y2.2265
G01 X46.6445 Y2.2311
G01 X46.6196 Y2.2614
G01 X46.6159 Y2.2664
G01 X46.5941 Y2.2991
G01 X46.5909 Y2.3044
G01 X46.5724 Y2.3390
G01 X46.5697 Y2.3447
G01 X46.5547 Y2.3809
G01 X46.5526 Y2.3868
G01 X46.5412 Y2.4244
G01 X46.5397 Y2.4304
G01 X46.5320 Y2.4689
G01 X46.5311 Y2.4751
G01 X46.5273 Y2.5141
G01 X46.5265 Y2.5400
G01 X46.5265 Y46.9900
G00 Z2.0000
M05
G00 Z2.0000
G00 Z40.00
G00 X0.0 Y0.0


