(G-CODE GENERATED BY FLATCAM v8.994 - www.flatcam.org - Version Date: 2020/11/7)

(Name: drill_1_16.xln_mill_cnc)
(Type: G-code from Geometry)
(Units: MM)

(Created on Tuesday, 05 January 2021 at 12:20)

(This preprocessor is the default preprocessor used by FlatCAM.)
(It is made to work with MACH3 compatible motion controllers.)

(TOOL DIAMETER: 0.8 mm)
(Feedrate_XY: 120.0 mm/min)
(Feedrate_Z: 200.0 mm/min)
(Feedrate rapids 1500.0 mm/min)

(Z_Cut: -1.2 mm)
(Z_Move: 2.0 mm)
(Z Start: None mm)
(Z End: 40.0 mm)
(X,Y End: 0.0000, 0.0000 mm)
(Steps per circle: 64)
(Preprocessor Geometry: default)

(X range:    3.5750 ...   87.2300  mm)
(Y range:    5.4800 ...   45.3200  mm)

(Spindle Speed: 0.0 RPM)
G21
G90
G94

G01 F120.00

M5
G00 Z15.0000
G00 X0.0000 Y0.0000
T1
M6    
(MSG, Change to Tool Dia = 0.8000)
M0
G00 Z15.0000

M03
G01 F120.00
G00 X5.3150 Y6.3500
G01 F200.00
G01 Z-1.2000
G01 F120.00
G01 X5.3108 Y6.2647
G01 X5.2983 Y6.1803
G01 X5.2775 Y6.0975
G01 X5.2488 Y6.0171
G01 X5.2123 Y5.9399
G01 X5.1684 Y5.8667
G01 X5.1175 Y5.7981
G01 X5.0602 Y5.7348
G01 X4.9969 Y5.6775
G01 X4.9283 Y5.6266
G01 X4.8551 Y5.5827
G01 X4.7779 Y5.5462
G01 X4.6975 Y5.5175
G01 X4.6147 Y5.4967
G01 X4.5303 Y5.4842
G01 X4.4450 Y5.4800
G01 X4.3597 Y5.4842
G01 X4.2753 Y5.4967
G01 X4.1925 Y5.5175
G01 X4.1121 Y5.5462
G01 X4.0349 Y5.5827
G01 X3.9617 Y5.6266
G01 X3.8931 Y5.6775
G01 X3.8298 Y5.7348
G01 X3.7725 Y5.7981
G01 X3.7216 Y5.8667
G01 X3.6777 Y5.9399
G01 X3.6412 Y6.0171
G01 X3.6125 Y6.0975
G01 X3.5917 Y6.1803
G01 X3.5792 Y6.2647
G01 X3.5750 Y6.3500
G01 X3.5792 Y6.4353
G01 X3.5917 Y6.5197
G01 X3.6125 Y6.6025
G01 X3.6412 Y6.6829
G01 X3.6777 Y6.7601
G01 X3.7216 Y6.8333
G01 X3.7725 Y6.9019
G01 X3.8298 Y6.9652
G01 X3.8931 Y7.0225
G01 X3.9617 Y7.0734
G01 X4.0349 Y7.1173
G01 X4.1121 Y7.1538
G01 X4.1925 Y7.1825
G01 X4.2753 Y7.2033
G01 X4.3597 Y7.2158
G01 X4.4450 Y7.2200
G01 X4.5303 Y7.2158
G01 X4.6147 Y7.2033
G01 X4.6975 Y7.1825
G01 X4.7779 Y7.1538
G01 X4.8551 Y7.1173
G01 X4.9283 Y7.0734
G01 X4.9969 Y7.0225
G01 X5.0602 Y6.9652
G01 X5.1175 Y6.9019
G01 X5.1684 Y6.8333
G01 X5.2123 Y6.7601
G01 X5.2488 Y6.6829
G01 X5.2775 Y6.6025
G01 X5.2983 Y6.5197
G01 X5.3108 Y6.4353
G01 X5.3150 Y6.3500
G00 Z2.0000
G00 X42.7800 Y6.3500
G01 F200.00
G01 Z-1.2000
G01 F120.00
G01 X42.7758 Y6.2647
G01 X42.7633 Y6.1803
G01 X42.7425 Y6.0975
G01 X42.7138 Y6.0171
G01 X42.6773 Y5.9399
G01 X42.6334 Y5.8667
G01 X42.5825 Y5.7981
G01 X42.5252 Y5.7348
G01 X42.4619 Y5.6775
G01 X42.3933 Y5.6266
G01 X42.3201 Y5.5827
G01 X42.2429 Y5.5462
G01 X42.1625 Y5.5175
G01 X42.0797 Y5.4967
G01 X41.9953 Y5.4842
G01 X41.9100 Y5.4800
G01 X41.8247 Y5.4842
G01 X41.7403 Y5.4967
G01 X41.6575 Y5.5175
G01 X41.5771 Y5.5462
G01 X41.4999 Y5.5827
G01 X41.4267 Y5.6266
G01 X41.3581 Y5.6775
G01 X41.2948 Y5.7348
G01 X41.2375 Y5.7981
G01 X41.1866 Y5.8667
G01 X41.1427 Y5.9399
G01 X41.1062 Y6.0171
G01 X41.0775 Y6.0975
G01 X41.0567 Y6.1803
G01 X41.0442 Y6.2647
G01 X41.0400 Y6.3500
G01 X41.0442 Y6.4353
G01 X41.0567 Y6.5197
G01 X41.0775 Y6.6025
G01 X41.1062 Y6.6829
G01 X41.1427 Y6.7601
G01 X41.1866 Y6.8333
G01 X41.2375 Y6.9019
G01 X41.2948 Y6.9652
G01 X41.3581 Y7.0225
G01 X41.4267 Y7.0734
G01 X41.4999 Y7.1173
G01 X41.5771 Y7.1538
G01 X41.6575 Y7.1825
G01 X41.7403 Y7.2033
G01 X41.8247 Y7.2158
G01 X41.9100 Y7.2200
G01 X41.9953 Y7.2158
G01 X42.0797 Y7.2033
G01 X42.1625 Y7.1825
G01 X42.2429 Y7.1538
G01 X42.3201 Y7.1173
G01 X42.3933 Y7.0734
G01 X42.4619 Y7.0225
G01 X42.5252 Y6.9652
G01 X42.5825 Y6.9019
G01 X42.6334 Y6.8333
G01 X42.6773 Y6.7601
G01 X42.7138 Y6.6829
G01 X42.7425 Y6.6025
G01 X42.7633 Y6.5197
G01 X42.7758 Y6.4353
G01 X42.7800 Y6.3500
G00 Z2.0000
G00 X49.7650 Y6.3500
G01 F200.00
G01 Z-1.2000
G01 F120.00
G01 X49.7608 Y6.2647
G01 X49.7483 Y6.1803
G01 X49.7275 Y6.0975
G01 X49.6988 Y6.0171
G01 X49.6623 Y5.9399
G01 X49.6184 Y5.8667
G01 X49.5675 Y5.7981
G01 X49.5102 Y5.7348
G01 X49.4469 Y5.6775
G01 X49.3783 Y5.6266
G01 X49.3051 Y5.5827
G01 X49.2279 Y5.5462
G01 X49.1475 Y5.5175
G01 X49.0647 Y5.4967
G01 X48.9803 Y5.4842
G01 X48.8950 Y5.4800
G01 X48.8097 Y5.4842
G01 X48.7253 Y5.4967
G01 X48.6425 Y5.5175
G01 X48.5621 Y5.5462
G01 X48.4849 Y5.5827
G01 X48.4117 Y5.6266
G01 X48.3431 Y5.6775
G01 X48.2798 Y5.7348
G01 X48.2225 Y5.7981
G01 X48.1716 Y5.8667
G01 X48.1277 Y5.9399
G01 X48.0912 Y6.0171
G01 X48.0625 Y6.0975
G01 X48.0417 Y6.1803
G01 X48.0292 Y6.2647
G01 X48.0250 Y6.3500
G01 X48.0292 Y6.4353
G01 X48.0417 Y6.5197
G01 X48.0625 Y6.6025
G01 X48.0912 Y6.6829
G01 X48.1277 Y6.7601
G01 X48.1716 Y6.8333
G01 X48.2225 Y6.9019
G01 X48.2798 Y6.9652
G01 X48.3431 Y7.0225
G01 X48.4117 Y7.0734
G01 X48.4849 Y7.1173
G01 X48.5621 Y7.1538
G01 X48.6425 Y7.1825
G01 X48.7253 Y7.2033
G01 X48.8097 Y7.2158
G01 X48.8950 Y7.2200
G01 X48.9803 Y7.2158
G01 X49.0647 Y7.2033
G01 X49.1475 Y7.1825
G01 X49.2279 Y7.1538
G01 X49.3051 Y7.1173
G01 X49.3783 Y7.0734
G01 X49.4469 Y7.0225
G01 X49.5102 Y6.9652
G01 X49.5675 Y6.9019
G01 X49.6184 Y6.8333
G01 X49.6623 Y6.7601
G01 X49.6988 Y6.6829
G01 X49.7275 Y6.6025
G01 X49.7483 Y6.5197
G01 X49.7608 Y6.4353
G01 X49.7650 Y6.3500
G00 Z2.0000
G00 X87.2300 Y6.3500
G01 F200.00
G01 Z-1.2000
G01 F120.00
G01 X87.2258 Y6.2647
G01 X87.2133 Y6.1803
G01 X87.1925 Y6.0975
G01 X87.1638 Y6.0171
G01 X87.1273 Y5.9399
G01 X87.0834 Y5.8667
G01 X87.0325 Y5.7981
G01 X86.9752 Y5.7348
G01 X86.9119 Y5.6775
G01 X86.8433 Y5.6266
G01 X86.7701 Y5.5827
G01 X86.6929 Y5.5462
G01 X86.6125 Y5.5175
G01 X86.5297 Y5.4967
G01 X86.4453 Y5.4842
G01 X86.3600 Y5.4800
G01 X86.2747 Y5.4842
G01 X86.1903 Y5.4967
G01 X86.1075 Y5.5175
G01 X86.0271 Y5.5462
G01 X85.9499 Y5.5827
G01 X85.8767 Y5.6266
G01 X85.8081 Y5.6775
G01 X85.7448 Y5.7348
G01 X85.6875 Y5.7981
G01 X85.6366 Y5.8667
G01 X85.5927 Y5.9399
G01 X85.5562 Y6.0171
G01 X85.5275 Y6.0975
G01 X85.5067 Y6.1803
G01 X85.4942 Y6.2647
G01 X85.4900 Y6.3500
G01 X85.4942 Y6.4353
G01 X85.5067 Y6.5197
G01 X85.5275 Y6.6025
G01 X85.5562 Y6.6829
G01 X85.5927 Y6.7601
G01 X85.6366 Y6.8333
G01 X85.6875 Y6.9019
G01 X85.7448 Y6.9652
G01 X85.8081 Y7.0225
G01 X85.8767 Y7.0734
G01 X85.9499 Y7.1173
G01 X86.0271 Y7.1538
G01 X86.1075 Y7.1825
G01 X86.1903 Y7.2033
G01 X86.2747 Y7.2158
G01 X86.3600 Y7.2200
G01 X86.4453 Y7.2158
G01 X86.5297 Y7.2033
G01 X86.6125 Y7.1825
G01 X86.6929 Y7.1538
G01 X86.7701 Y7.1173
G01 X86.8433 Y7.0734
G01 X86.9119 Y7.0225
G01 X86.9752 Y6.9652
G01 X87.0325 Y6.9019
G01 X87.0834 Y6.8333
G01 X87.1273 Y6.7601
G01 X87.1638 Y6.6829
G01 X87.1925 Y6.6025
G01 X87.2133 Y6.5197
G01 X87.2258 Y6.4353
G01 X87.2300 Y6.3500
G00 Z2.0000
G00 X87.2300 Y44.4500
G01 F200.00
G01 Z-1.2000
G01 F120.00
G01 X87.2258 Y44.3647
G01 X87.2133 Y44.2803
G01 X87.1925 Y44.1975
G01 X87.1638 Y44.1171
G01 X87.1273 Y44.0399
G01 X87.0834 Y43.9667
G01 X87.0325 Y43.8981
G01 X86.9752 Y43.8348
G01 X86.9119 Y43.7775
G01 X86.8433 Y43.7266
G01 X86.7701 Y43.6827
G01 X86.6929 Y43.6462
G01 X86.6125 Y43.6175
G01 X86.5297 Y43.5967
G01 X86.4453 Y43.5842
G01 X86.3600 Y43.5800
G01 X86.2747 Y43.5842
G01 X86.1903 Y43.5967
G01 X86.1075 Y43.6175
G01 X86.0271 Y43.6462
G01 X85.9499 Y43.6827
G01 X85.8767 Y43.7266
G01 X85.8081 Y43.7775
G01 X85.7448 Y43.8348
G01 X85.6875 Y43.8981
G01 X85.6366 Y43.9667
G01 X85.5927 Y44.0399
G01 X85.5562 Y44.1171
G01 X85.5275 Y44.1975
G01 X85.5067 Y44.2803
G01 X85.4942 Y44.3647
G01 X85.4900 Y44.4500
G01 X85.4942 Y44.5353
G01 X85.5067 Y44.6197
G01 X85.5275 Y44.7025
G01 X85.5562 Y44.7829
G01 X85.5927 Y44.8601
G01 X85.6366 Y44.9333
G01 X85.6875 Y45.0019
G01 X85.7448 Y45.0652
G01 X85.8081 Y45.1225
G01 X85.8767 Y45.1734
G01 X85.9499 Y45.2173
G01 X86.0271 Y45.2538
G01 X86.1075 Y45.2825
G01 X86.1903 Y45.3033
G01 X86.2747 Y45.3158
G01 X86.3600 Y45.3200
G01 X86.4453 Y45.3158
G01 X86.5297 Y45.3033
G01 X86.6125 Y45.2825
G01 X86.6929 Y45.2538
G01 X86.7701 Y45.2173
G01 X86.8433 Y45.1734
G01 X86.9119 Y45.1225
G01 X86.9752 Y45.0652
G01 X87.0325 Y45.0019
G01 X87.0834 Y44.9333
G01 X87.1273 Y44.8601
G01 X87.1638 Y44.7829
G01 X87.1925 Y44.7025
G01 X87.2133 Y44.6197
G01 X87.2258 Y44.5353
G01 X87.2300 Y44.4500
G00 Z2.0000
G00 X42.7800 Y44.4500
G01 F200.00
G01 Z-1.2000
G01 F120.00
G01 X42.7758 Y44.3647
G01 X42.7633 Y44.2803
G01 X42.7425 Y44.1975
G01 X42.7138 Y44.1171
G01 X42.6773 Y44.0399
G01 X42.6334 Y43.9667
G01 X42.5825 Y43.8981
G01 X42.5252 Y43.8348
G01 X42.4619 Y43.7775
G01 X42.3933 Y43.7266
G01 X42.3201 Y43.6827
G01 X42.2429 Y43.6462
G01 X42.1625 Y43.6175
G01 X42.0797 Y43.5967
G01 X41.9953 Y43.5842
G01 X41.9100 Y43.5800
G01 X41.8247 Y43.5842
G01 X41.7403 Y43.5967
G01 X41.6575 Y43.6175
G01 X41.5771 Y43.6462
G01 X41.4999 Y43.6827
G01 X41.4267 Y43.7266
G01 X41.3581 Y43.7775
G01 X41.2948 Y43.8348
G01 X41.2375 Y43.8981
G01 X41.1866 Y43.9667
G01 X41.1427 Y44.0399
G01 X41.1062 Y44.1171
G01 X41.0775 Y44.1975
G01 X41.0567 Y44.2803
G01 X41.0442 Y44.3647
G01 X41.0400 Y44.4500
G01 X41.0442 Y44.5353
G01 X41.0567 Y44.6197
G01 X41.0775 Y44.7025
G01 X41.1062 Y44.7829
G01 X41.1427 Y44.8601
G01 X41.1866 Y44.9333
G01 X41.2375 Y45.0019
G01 X41.2948 Y45.0652
G01 X41.3581 Y45.1225
G01 X41.4267 Y45.1734
G01 X41.4999 Y45.2173
G01 X41.5771 Y45.2538
G01 X41.6575 Y45.2825
G01 X41.7403 Y45.3033
G01 X41.8247 Y45.3158
G01 X41.9100 Y45.3200
G01 X41.9953 Y45.3158
G01 X42.0797 Y45.3033
G01 X42.1625 Y45.2825
G01 X42.2429 Y45.2538
G01 X42.3201 Y45.2173
G01 X42.3933 Y45.1734
G01 X42.4619 Y45.1225
G01 X42.5252 Y45.0652
G01 X42.5825 Y45.0019
G01 X42.6334 Y44.9333
G01 X42.6773 Y44.8601
G01 X42.7138 Y44.7829
G01 X42.7425 Y44.7025
G01 X42.7633 Y44.6197
G01 X42.7758 Y44.5353
G01 X42.7800 Y44.4500
G00 Z2.0000
M05
G00 Z2.0000
G00 Z40.00
G00 X0.0 Y0.0


